design-system/icons/code--labs-icons.svg

<svg width="22" height="20" viewBox="0 0 22 20" fill="none" xmlns="http://www.w3.org/2000/svg">
<mask id="mask0_280_55" style="mask-type:alpha" maskUnits="userSpaceOnUse" x="0" y="0" width="22" height="22">
<rect x="0.333496" width="21.0833" height="21.0833" fill="#D9D9D9"/>
</mask>
<g mask="url(#mask0_280_55)">
<path d="M4.85749 10.5417L8.10783 13.792C8.34209 14.0263 8.45922 14.3008 8.45922 14.6156C8.45922 14.9304 8.34209 15.2049 8.10783 15.4391C7.87358 15.6734 7.59905 15.7905 7.28427 15.7905C6.96948 15.7905 6.69496 15.6734 6.4607 15.4391L2.35384 11.3323C2.23408 11.2162 2.14923 11.0904 2.0993 10.955C2.04938 10.8196 2.02441 10.6745 2.02441 10.5197C2.02441 10.3649 2.04938 10.2199 2.0993 10.0844C2.14923 9.94899 2.23408 9.82322 2.35384 9.70712L6.4607 5.60026C6.69496 5.366 6.97314 5.24887 7.29525 5.24887C7.61735 5.24887 7.89554 5.366 8.1298 5.60026C8.36406 5.83452 8.48119 6.1127 8.48119 6.43481C8.48119 6.75691 8.36406 7.0351 8.1298 7.26936L4.85749 10.5417ZM16.9365 10.4538L13.6642 7.18151C13.4446 6.96189 13.3384 6.69469 13.3457 6.3799C13.353 6.06512 13.4665 5.79792 13.6861 5.5783C13.9058 5.35868 14.173 5.24887 14.4877 5.24887C14.8025 5.24887 15.0697 5.35868 15.2893 5.5783L19.3962 9.70712C19.516 9.82322 19.6008 9.94899 19.6507 10.0844C19.7007 10.2199 19.7256 10.3649 19.7256 10.5197C19.7256 10.6745 19.7007 10.8196 19.6507 10.955C19.6008 11.0904 19.516 11.2162 19.3962 11.3323L15.3113 15.4172C15.0718 15.6514 14.7923 15.7649 14.4728 15.7576C14.1533 15.7503 13.8765 15.6295 13.6422 15.3952C13.408 15.161 13.2945 14.8828 13.3018 14.5607C13.3091 14.2386 13.4299 13.9604 13.6642 13.7261L16.9365 10.4538Z" fill="#1C1B1F"/>
</g>
</svg>

<svg xmlns="http://www.w3.org/2000/svg" width="22" height="20" fill="none" viewBox="0 0 22 20"><mask id="a" width="22" height="22" x="0" y="0" maskUnits="userSpaceOnUse" style="mask-type:alpha"><path fill="#d9d9d9" d="M.333 0h21.083v21.083H.333z"/></mask><g mask="url(#a)"><path fill="#1c1b1f" d="m4.857 10.542 3.25 3.25q.352.351.352.824 0 .472-.351.823a1.13 1.13 0 0 1-.824.351q-.472 0-.823-.35l-4.107-4.108a1 1 0 0 1-.255-.377 1.3 1.3 0 0 1-.075-.435q0-.232.075-.436.075-.202.255-.377L6.46 5.6a1.14 1.14 0 0 1 .834-.351q.483 0 .835.351.351.352.351.835t-.351.834zm12.08-.088-3.273-3.272a1.05 1.05 0 0 1-.318-.802 1.13 1.13 0 0 1 .34-.802q.33-.33.802-.33t.801.33l4.107 4.13q.18.173.255.376t.075.436-.075.435q-.075.203-.255.377l-4.085 4.085q-.36.351-.838.34a1.18 1.18 0 0 1-.83-.362 1.1 1.1 0 0 1-.341-.834q.01-.483.362-.835z"/></g></svg>
